X:2261
T:The Farmer's Boy 
C:Traditional
O:Isle of Man
S:E Corteen 
Z:Clague collection
B:Kiaull Vannin #261 
L:1/4
M:4/4 
Q:60 
K:D 
A|d>e d A|B d d d|e>d c d|e3 A|Bd d>c|B d A A|B e d c|d3 d| 
f f f e/d/|g g g>e|f a a f/d/|e3 A|d d d d|B d A A|Be d c|d3 A| 
F D F A|d3 d|c A B d|e3 f/e/|d d d d|B d A A|Be d c|d3|| 

